X:357
T: Pray Goody
N: O'Farrell's Pocket Companion v.4 (Sky ed. p.154)
M: 4/4
L: 1/8
Q: 280
R: march
K: G
d4 cBAG| BAGF GBdf| {f}g2fe dBAG| gdcB {B}A4|
d4 cBAG| BAGF GBdf| {f}g2fe dBec| BdcA G4 ||
g2d2e2d2| gBBB c2B2| gddd gddd| gdcB B2A2 :|
d4 cBAG| BAGF GBdf| {f}g2fe dBAG| gdcB {B}A4|
d4 cBAG| BAGF GBdf| {f}g2fe dBec| BdcA G4 ||
